public/linkedin.svg

<svg width="13" height="14" viewBox="0 0 13 14" fill="none" xmlns="http://www.w3.org/2000/svg">
<path d="M0.0487999 6.88148C0.0487999 5.17888 0.0444665 3.47194 0.0531286 1.76933C0.0531286 1.30143 0.235031 0.920189 0.668134 0.690575C0.850037 0.595263 1.05359 0.556272 1.24849 0.556272C4.67434 0.55194 8.10451 0.547607 11.5304 0.556272C11.9981 0.556272 12.3749 0.75556 12.6001 1.18879C12.6911 1.36642 12.7257 1.56571 12.7257 1.76066C12.7301 5.18321 12.7301 8.60575 12.7257 12.024C12.7257 12.4832 12.5395 12.8644 12.1107 13.0941C11.9288 13.1894 11.7253 13.2284 11.5304 13.2284C8.10451 13.2327 4.67434 13.237 1.24849 13.2284C0.780739 13.2284 0.399615 13.0291 0.178732 12.5958C0.0834495 12.4095 0.0487999 12.2059 0.0487999 12.0023C0.0444689 10.2954 0.0487999 8.58843 0.0487999 6.88148ZM7.02175 5.98469C7.02175 5.82006 7.02175 5.69009 7.02175 5.56012C7.02175 5.33051 6.89182 5.19621 6.66228 5.19621C6.20319 5.19621 5.7441 5.20487 5.28934 5.19187C5.02082 5.18321 4.88656 5.37816 4.88656 5.59911C4.89089 7.54867 4.88656 9.49822 4.89089 11.4521C4.89089 11.725 5.02948 11.868 5.29801 11.868C5.7441 11.8723 6.18587 11.8723 6.62764 11.868C6.8875 11.868 7.02175 11.7294 7.02175 11.4651C7.02175 10.4643 7.02175 9.45923 7.02175 8.45412C7.02175 8.28516 7.03908 8.1162 7.08239 7.95157C7.13436 7.73929 7.20799 7.53134 7.33359 7.34938C7.5588 7.02445 7.8793 6.91181 8.26476 6.93347C8.62857 6.95514 8.90142 7.10677 9.066 7.43602C9.21326 7.72629 9.25224 8.04255 9.25657 8.36314C9.26523 9.39857 9.25657 10.4297 9.25657 11.4651C9.25657 11.7337 9.38216 11.8593 9.64636 11.8637C10.1054 11.868 10.5645 11.868 11.0193 11.8637C11.2878 11.8637 11.4264 11.7294 11.4264 11.4608C11.4177 10.2131 11.4567 8.96101 11.3961 7.71329C11.3701 7.19775 11.2748 6.69519 11.0409 6.2273C10.8027 5.75074 10.4389 5.41282 9.93221 5.2352C9.52076 5.0879 9.09632 5.07057 8.67188 5.09656C8.39902 5.11389 8.1305 5.17021 7.87497 5.27419C7.52849 5.42582 7.2513 5.65543 7.02175 5.98469ZM1.8635 8.52344C1.8635 9.50255 1.8635 10.4773 1.8635 11.4564C1.8635 11.7034 1.98477 11.855 2.22731 11.8593C2.69073 11.8723 3.15848 11.868 3.6219 11.8593C3.84278 11.855 3.96838 11.7164 3.99003 11.4954C3.99436 11.4651 3.99437 11.4348 3.99437 11.4001C3.99437 9.48089 3.99437 7.55733 3.99437 5.63377C3.99437 5.59911 3.99436 5.56445 3.99003 5.5298C3.95972 5.30451 3.83412 5.19187 3.60891 5.19187C3.16281 5.19187 2.71238 5.19187 2.26629 5.19187C1.99343 5.19187 1.86783 5.32184 1.86783 5.59478C1.8635 6.57389 1.8635 7.54867 1.8635 8.52344ZM1.556 3.28998C1.55167 4.03947 2.171 4.66333 2.92027 4.66766C3.66087 4.66766 4.28888 4.04814 4.29321 3.30731C4.29754 2.54915 3.67387 1.92529 2.92027 1.92529C2.171 1.92529 1.556 2.54482 1.556 3.28998Z" fill="#39FCBF"/>
</svg>

<svg xmlns="http://www.w3.org/2000/svg" width="13" height="14" fill="none" xmlns:v="https://vecta.io/nano"><path d="M.049 6.881l.004-5.112c0-.468.182-.849.615-1.079.182-.095.385-.134.58-.134H11.53c.468 0 .845.199 1.07.633.091.178.126.377.126.572v10.263c0 .459-.186.84-.615 1.07-.182.095-.385.134-.58.134H1.248c-.468 0-.849-.199-1.07-.633a1.29 1.29 0 0 1-.13-.594V6.881zm6.973-.897V5.56c0-.23-.13-.364-.359-.364-.459 0-.918.009-1.373-.004-.269-.009-.403.186-.403.407l.004 5.853c0 .273.139.416.407.416h1.33c.26 0 .394-.139.394-.403V8.454a1.97 1.97 0 0 1 .061-.503c.052-.212.126-.42.251-.602.225-.325.546-.438.931-.416.364.022.637.173.801.503.147.29.186.607.191.927v3.102c0 .269.126.394.39.399h1.373c.269 0 .407-.134.407-.403l-.03-3.748c-.026-.516-.121-1.018-.355-1.486a1.91 1.91 0 0 0-1.109-.992c-.411-.147-.836-.165-1.26-.139a2.53 2.53 0 0 0-.797.178c-.346.152-.624.381-.853.71zM1.864 8.523v2.933c0 .247.121.399.364.403a29.88 29.88 0 0 0 1.395 0c.221-.004.346-.143.368-.364a.67.67 0 0 0 .004-.095V5.634L3.99 5.53c-.03-.225-.156-.338-.381-.338H2.266c-.273 0-.398.13-.398.403l-.004 2.929zM1.556 3.29A1.38 1.38 0 0 0 2.92 4.668a1.39 1.39 0 0 0 1.373-1.36A1.38 1.38 0 0 0 2.92 1.925c-.749 0-1.364.62-1.364 1.365z" fill="#39fcbf"/></svg>
